X:1
T:Live Nearer to Jesus
T:Live Nearer to Jesus
T:Alexander Streeter Arnold
T:Alexander Streeter Arnold, 1879
T:Public Domain Courtesy of the Cyber Hymnal™
T:Public Domain Courtesy of the Cyber Hymnal™
C:Alexander Streeter Arnold
Z:Public Domain
Z:Courtesy of the Cyber Hymnal™
%%score ( 1 2 ) ( 3 4 )
L:1/8
Q:1/4=100
M:6/8
K:A
V:1 treble 
V:2 treble 
V:3 bass 
V:4 bass 
V:1
 [Ec]3 [Ec][Fd][Ec] | [FB]3 [DF]2 z | [DG]2 [DF] [CE][EA][Ac] | ([G-B]3 [Ge]2) z | %4
w: 1.~Live near- er to|Je- sus,|Trust- ing ev- er in|Him; *|
w: 2.~Live near- er to|Je- sus,|Ev- er trust in His|power; *|
w: 3.~Live near- er to|Je- sus,|And His Spir- it re-|ceive; *|
 [Ec]3 [Ec][Fd][Ec] | [FB]3 [DF]2 z | [DG]2 [DF] [CE]!fermata![Ec][DB] | [CA]3- [CA]2 z | %8
w: He wait- eth to|free us|From the bond- age of|sin. *|
w: Thro’ life He will|lead us,|Cheer- ing ev- ery dark|hour. *|
w: He’ll ne- ver de-|ceive us—|O, His prom- ise be-|lieve. *|
 [GB]3 [AB][Ac][A^d] | [Ge]3 [GB]2 z | [^DB]2 [DB] [DA][DG][DF] | ([EG-]3 [GB]2) z | %12
w: Stand up for the|Sav- ior,|Stand up ev- er for|Him. *|
w: Stray not from His|keep- ing,|In Him al- ways a-|bide; *|
w: Sweet is the com-|mun- ion,|Yes, more pre- cious than|gold; *|
 [GB]3 [AB][Ac][A^d] | [Ge]3 [GB]2 z |"^Rit. ad lib." [F^d]2 [Ec] [^DB][DA][DF] | %15
w: In du- ty ne’er|wa- ver,|He is Sav- ior and|
w: Joys con- stant- ly|reap- ing,|Cling- ing close to His|
w: In heav- en- ly|un- ion|We His beau- ty be-|
 E3- (E/F/G/A/B/^B/) ||"^Refrain" [Ec]2 [Ec] ([Ec][Fd])"^A tempo"[Fd] | [FB]3 [DF]2 z | %18
w: king. * * * * * *|||
w: side. * * * * * *|In His love * we’re|strong- er,|
w: hold. * * * * * *|||
 [DG]2 [DF] ([CE][EA])[Ac] | [GB]3 [Ge]2 z | [Ec]2 [Ec] ([Ec][Fd])[Ec] | [FB]3 [DF]2 z | %22
w: ||||
w: In His strength * we|con- quer;|Trust in self * no|lon- ger,|
w: ||||
 [DG]2 [DF] [CE]!fermata![Ec][DB] | [CA]3- [CA]2 z |] %24
w: ||
w: Trust Thy Sav- ior and|king. *|
w: ||
V:2
 x6 | x6 | x6 | x6 | x6 | x6 | x6 | x6 | x6 | x6 | x6 | x6 | x6 | x6 | x6 | (E3- E2) x || x6 | x6 | %18
 x6 | x6 | x6 | x6 | x6 | x6 |] %24
V:3
 A,3 A,A,A, | [D,D]3 [D,B,]2 z | [E,B,]2 [E,G,] A,[A,C][A,E] | ([E,-E]3 [E,B,]2) z | A,3 A,A,A, | %5
 [D,D]3 [D,B,]2 z | [E,B,]2 [E,G,] [E,A,]!fermata![E,A,][E,G,] | [A,,A,]3- [A,,A,]2 z | %8
 [E,B,]3 [B,,B,][B,,B,][B,,B,] | [E,B,]3 [E,E]2 z | [B,,F,]2 [B,,F,] [B,,B,][B,,B,][B,,B,] | %11
 ([E,-B,]3 [E,E]2) z | [E,B,]3 [B,,B,][B,,B,][B,,B,] | [E,B,]3 [E,E]2 z | %14
 [B,,B,]2 [B,,B,] [B,,B,][B,,B,][B,,A,] | [E,G,]3- [E,G,]2 z || A,2 A, A,2 A, | [D,D]3 [D,B,]2 z | %18
 [E,B,]2 [E,G,] (A,C)[A,,E] | [E,E]3 [E,B,]2 z | A,2 A, A,2 A, | [D,D]3 [E,B,]2 z | %22
 [E,B,]2 [E,G,] [E,A,]!fermata![E,A,][E,G,] | [A,,A,]3- [A,,A,]2 z |] %24
V:4
 A,3 A,A,A, | x6 | x3 A, x2 | x6 | A,3 A,A,A, | x6 | x6 | x6 | x6 | x6 | x6 | x6 | x6 | x6 | x6 | %15
 x6 || A,2 A, A,2 A, | x6 | x3 A,,2 x | x6 | A,2 A, A,2 A, | x6 | x6 | x6 |] %24

